X:1
T:La Brabançonne
C:François van Campenhout
Z:All Rights Reserved
L:1/8
M:4/4
K:Bb
V:1 treble nm=" " snm=" "
V:1
z>F D>E | F2 G>A B>A B>d | F7/2G/ F2 A>B | c2 c>c c>c B>A | B4- B>A B>G | F2 G>A B>A B>c | %6
w: O dier- baar|Bel- gië O hei- lig land der|vaa- d'- ren on- ze|ziel en ons hart zijn u ge-|wijd. _ Aan- vaard ons|hart en het bloed van on- ze|
 A4 A2 A>G | F7/2A/ c>c B>G | F6G>F | F7/2F/ F>F G>A | c4 B7/2B/ | A2 A>A B>A B>d | c4z>F F>F | %13
w: ad- ren wees ons|doel in ar- beid en in|strijd. Bloei, o|land in een- dracht niet te|bre- ken wees|im- mer u- zelf en on- ge-|knecht. Het woord ge-|
 B2 B>B B>B c>B | (A7/2B/) c7/2c/ | B7/2B/ B>d c>B | A4z>F F>F | B2 F>F d>c B>A | G4 G2z>c | %19
w: trouw, dat ge on- be vreesd moogt|spre- _ ken voor|Vorst, voor vrij- heid en voor|recht. Het woord ge-|trouw, dat ge on- be- vreesd moogt|spre- ken voor|
 B7/2B/ A>G A>c | B4 z2 F2 | d7/2B/ A>F G>F | F4 z2 F2 | d7/2B/ A>G A>c | B4 x4 |] %25
w: Vorst, voor vrij- heid en voor|recht, Voor|Vorst, voor vrij- heid en voor|recht. Voor|Vorst, voor vrij- heid en voor|recht.|

